.local/share/icons/Gruvbox-Plus-Dark/actions/16/paint-pattern.svg

<svg width="16" height="16" version="1.1" xmlns="http://www.w3.org/2000/svg">
  <defs>
    <style id="current-color-scheme" type="text/css">.ColorScheme-Text { color:#ebdbb2; } .ColorScheme-Highlight { color:#458588; }</style>
  </defs>
  <path class="ColorScheme-Text" d="m0 0h16v16h-16z" fill="currentColor" opacity=".3"/>
  <path class="ColorScheme-Text" d="m0 0 4 4 4-4h-8zm8 0 4 4 4-4h-8zm4 4-4 4 4 4 4-4-4-4zm0 8-4 4h8l-4-4zm-4 4-4-4-4 4h8zm-4-4 4-4-4-4-4 4 4 4z" fill="currentColor"/>
</svg>

<svg xmlns="http://www.w3.org/2000/svg" width="16" height="16" version="1.1">
 <defs>
  <style id="current-color-scheme" type="text/css">
   .ColorScheme-Text { color:#565656; } .ColorScheme-Highlight { color:#4285f4; }
  </style>
 </defs>
 <path style="opacity:0.3;fill:currentColor" class="ColorScheme-Text" d="M 0,0 H 16 V 16 H 0 Z"/>
 <path style="fill:currentColor" class="ColorScheme-Text" d="M 0 0 L 4 4 L 8 0 L 0 0 z M 8 0 L 12 4 L 16 0 L 8 0 z M 12 4 L 8 8 L 12 12 L 16 8 L 12 4 z M 12 12 L 8 16 L 16 16 L 12 12 z M 8 16 L 4 12 L 0 16 L 8 16 z M 4 12 L 8 8 L 4 4 L 0 8 L 4 12 z"/>
</svg>
